justvector/steam.svg

<?xml version="1.0" encoding="iso-8859-1"?>
<!-- Generator: Adobe Illustrator 15.0.0, SVG Export Plug-In . SVG Version: 6.00 Build 0)  -->
<!DOCTYPE svg PUBLIC "-//W3C//DTD SVG 1.1//EN" "http://www.w3.org/Graphics/SVG/1.1/DTD/svg11.dtd">
<svg version="1.1" id="Icons" xmlns="http://www.w3.org/2000/svg" xmlns:xlink="http://www.w3.org/1999/xlink" x="0px" y="0px"
	 width="100px" height="100px" viewBox="0 0 100 100" style="enable-background:new 0 0 100 100;" xml:space="preserve">
<path id="Steam" style="fill-rule:evenodd;clip-rule:evenodd;" d="M88.265,38.963c0,4.582-3.728,8.298-8.327,8.298
	c-4.604,0-8.33-3.716-8.33-8.298s3.727-8.297,8.33-8.297C84.537,30.666,88.265,34.381,88.265,38.963z M84.91,52.982l-10.086,8.594
	c0.109,0.686,0.183,1.383,0.183,2.098c0,7.316-5.954,13.248-13.296,13.248c-6.334,0-11.623-4.414-12.963-10.32l-24.931-8.427
	c-1.97,1.49-4.419,2.385-7.083,2.385C10.254,60.56,5,55.325,5,48.869c0-6.455,5.254-11.688,11.734-11.688
	c5.572,0,10.226,3.87,11.427,9.055l24.083,8.141c2.346-2.369,5.581-3.854,9.166-3.934l3.607-10.924
	c-0.01-0.217-0.032-0.431-0.032-0.65c0-8.255,6.719-14.947,15.007-14.947S95,30.614,95,38.869C95,45.409,90.779,50.953,84.91,52.982
	z M24.112,44.868c-1.402-2.514-4.093-4.217-7.184-4.217c-4.538,0-8.217,3.665-8.217,8.185s3.679,8.184,8.217,8.184
	c0.839,0,1.647-0.126,2.409-0.359l-3.904-1.319c-3.146-1.678-4.33-5.579-2.645-8.713c1.686-3.132,5.602-4.31,8.745-2.632
	L24.112,44.868z M68.288,38.905c0,6.412,5.218,11.61,11.655,11.61s11.659-5.198,11.659-11.61c0-6.415-5.222-11.613-11.659-11.613
	S68.288,32.49,68.288,38.905z M68.518,64.811c0-4.882-3.973-8.84-8.874-8.84c-0.687,0-1.351,0.086-1.993,0.232l4.959,1.676
	c3.144,1.68,4.326,5.58,2.641,8.711c-1.685,3.136-5.601,4.313-8.744,2.635l-5.344-1.807c1.117,3.609,4.492,6.232,8.481,6.232
	C64.545,73.65,68.518,69.691,68.518,64.811z"/>
</svg>

<?xml version="1.0" encoding="UTF-8" standalone="no"?>
<!DOCTYPE svg PUBLIC "-//W3C//DTD SVG 1.1//EN" "http://www.w3.org/Graphics/SVG/1.1/DTD/svg11.dtd">
<svg width="100%" height="100%" viewBox="0 0 100 100" version="1.1" xmlns="http://www.w3.org/2000/svg" xmlns:xlink="http://www.w3.org/1999/xlink" xml:space="preserve" xmlns:serif="http://www.serif.com/" style="fill-rule:evenodd;clip-rule:evenodd;stroke-linejoin:round;stroke-miterlimit:2;">
    <path id="Steam" d="M88.265,38.963C88.265,43.545 84.537,47.261 79.938,47.261C75.334,47.261 71.608,43.545 71.608,38.963C71.608,34.381 75.335,30.666 79.938,30.666C84.537,30.666 88.265,34.381 88.265,38.963ZM84.91,52.982L23.817,58.175C21.847,59.665 19.398,60.56 16.734,60.56C10.254,60.56 5,55.325 5,48.869C5,42.414 10.254,37.181 16.734,37.181C22.306,37.181 26.96,41.051 28.161,46.236L65.017,39.519C65.007,39.302 64.985,39.088 64.985,38.869C64.985,30.614 71.704,23.922 79.992,23.922C88.28,23.922 95,30.614 95,38.869C95,45.409 90.779,50.953 84.91,52.982ZM24.112,44.868C22.71,42.354 20.019,40.651 16.928,40.651C12.39,40.651 8.711,44.316 8.711,48.836C8.711,53.356 12.39,57.02 16.928,57.02C17.767,57.02 18.575,56.894 19.337,56.661L15.433,55.342C12.287,53.664 11.103,49.763 12.788,46.629C14.474,43.497 18.39,42.319 21.533,43.997L24.112,44.868ZM68.288,38.905C68.288,45.317 73.506,50.515 79.943,50.515C86.38,50.515 91.602,45.317 91.602,38.905C91.602,32.49 86.38,27.292 79.943,27.292C73.506,27.292 68.288,32.49 68.288,38.905Z"/>
</svg>
